X:170
T:Centre of Friends
C:Colin Hume, 1997
L:1/4
M:3/4
R:Waltz
S:Colin Hume's website,  colinhume.com  - chords can also be printed below the stave.
%%MIDI beat 100 95 80
Q:1/4=120
K:C
P:A
V:1
%%MIDI control 10 0     % Left speaker
%%MIDI program 68       % Oboe
%%MIDI bassprog 32      % Acoustic Bass
%%MIDI chordprog 24     % Acoustic Guitar (nylon)
[| "C"GcE | "Dm"G F2 | "G7"FGD | "C"E3 | "G7/B"GAB | "Am"ce2 | "Dm"dAc | "G"B2A |
V:2
%%MIDI control 10 127   % Right speaker
%%MIDI program 71       % Clarinet
[| EGC | ED2 | B,DB, | C3 | B,CD | EC2 | FDA | G2F |
P:B
V:1
"C"GcE | "Dm"G F2 | "G7"FdB | "Am"c2B | "F"AF2 | "Em"GE2 | "G7"FDB, | "C"C3 |
V:2
EGC | ED2 | DFG | A2E | FC2 | EB,2 | G,B,G, | C3 |
P:C
V:1
"Am"ced/c/ | "Em"BGE | "F"FAG/F/ | "C"E3 | "Am"ced/c/ | "E"B^GE | "B7"^FA^G/F/ | "E"E3 |
V:2
AcB/A/ | GEB, | A,CB,/A,/ | G,3 | AcB/A/ | ^GEB, | A,^CB,/A,/ | ^G,3 |
P:D
V:1
"Am"AcB/A/ | "G"Bdc/B/ | "F"cfe | "G"d2- "E7/G"d | "Am"cA2 | "Em"GE2 | "G7"FDB, | "C"C3 |]
V:2
CED/C/ | DFD/E/ | FAc | B3 | AE2 | EB,2 | G,B,G, | C3 |]

